icons/bit-coin-fill.svg

<svg xmlns="http://www.w3.org/2000/svg" width="24" height="24" fill="none"><g clip-path="url(#a)"><g><path fill="#121212" d="M12 22C6.477 22 2 17.523 2 12C2 6.477 6.477 2 12 2C17.523 2 22 6.477 22 12C22 17.523 17.523 22 12 22ZM11 16V18H13V16H14C14.4643 16 14.9194 15.8707 15.3143 15.6266C15.7093 15.3825 16.0284 15.0333 16.2361 14.618C16.4437 14.2028 16.5316 13.7379 16.4899 13.2755C16.4482 12.8131 16.2786 12.3714 16 12C16.2786 11.6286 16.4482 11.1869 16.4899 10.7245C16.5316 10.2621 16.4437 9.79723 16.2361 9.38197C16.0284 8.9667 15.7093 8.61746 15.3143 8.37337C14.9194 8.12929 14.4643 8 14 8H13V6H11V8H8V16H11ZM10 13H14C14.1326 13 14.2598 13.0527 14.3536 13.1464C14.4473 13.2402 14.5 13.3674 14.5 13.5C14.5 13.6326 14.4473 13.7598 14.3536 13.8536C14.2598 13.9473 14.1326 14 14 14H10V13ZM10 10H14C14.1326 10 14.2598 10.0527 14.3536 10.1464C14.4473 10.2402 14.5 10.3674 14.5 10.5C14.5 10.6326 14.4473 10.7598 14.3536 10.8536C14.2598 10.9473 14.1326 11 14 11H10V10Z"/></g></g><defs><clipPath id="a"><rect width="24" height="24" fill="white"/></clipPath></defs></svg>

<svg width="24" height="24" fill="none" xmlns="http://www.w3.org/2000/svg"><g clip-path="url(#a)"><path d="M12 22C6.477 22 2 17.523 2 12S6.477 2 12 2s10 4.477 10 10-4.477 10-10 10Zm-1-6v2h2v-2h1a2.5 2.5 0 0 0 2-4 2.5 2.5 0 0 0-2-4h-1V6h-2v2H8v8h3Zm-1-3h4a.5.5 0 0 1 0 1h-4v-1Zm0-3h4a.5.5 0 0 1 0 1h-4v-1Z" /></g><defs><clipPath id="a"><path fill="#fff" d="M0 0h24v24H0z"/></clipPath></defs></svg>
